X:261
T:The Gallow Glass
M:6/8
L:1/8
K:G
B|:"Am"cBA eBd|cAA A2 B|cBA "Em"efg|"G"dBG GAB|"Am"cBA eBd|
cea "Em"e2 d| \
"Am"cBA "G"GAB|1 "Am"cAA A2 B :|2 "Am"cAA A2 e|: "Am"aga "Em"e2 d| \
"Am"cAA A2 B|
cBA "Em"efg|"G"dBG GBd|1 "Am"aga "Em"e2 d|"Am"cAA Aed|cBA "G"GAB|
"Am"cAA A2 e:|2 "Am"aeg "D"fdf|"Am"ecA "Em"BGE|"Am"ABc "Em"dBe|"Am"cAA A3|]
